X: 4
T: Windmill, The
C: Ciaran Tourish
Z: Erik-Fiddler
S: https://thesession.org/tunes/193#setting48704
R: reel
M: 4/4
L: 1/8
K: Dmaj
A/B/c|:(3d/d/d/d fd ceAc|dBGB AFDE|FB {d}~(3B/A/B/B defd|eAce a/g/f ge|
(3d/d/d/d fd ceAc|dBGB AF D/E/F|GFGA B/c/d fa |1gece dABc:|2gece defg||
|:eA (3A/A/A/A a3 f|gA (3A/A/A/A dFAd|B/c/B AB G3 F|EB,EF GABc|
dA (3A/A/A/A eAaA|fd{e}dc dfed|B/c/d ef gfga|1gece defg:|2gece [d2D2]||

